X:171
M:2/4
L:1/8
Q:1/4=150
K:G
|:dfaf|bgfe|fgaf|e^cBA|dfaf|gabg|faA^c|d2D2:|
|:GBdB|efge|dbca|BgAf|GBdB|efge|dcBA|G2[G2G,2]:|

